X:265
T: O TANNENBAUM O TANNENBAUM
N: Z0263
O: Europa, Mitteleuropa, Deutschland, Sachsen
R: Weihnachts - Lied
M: 3/4
L: 1/8
K: C
G, | CCC3G, | DDD3
G, | ECF2E2 | D2C2z
G | GGG3A | FFF3
F | EEE3E | DDD3
G, | CCC3G, | DDD3
G, | ECF2E2 | D2C2z

@@@ Tune index: 10023
